packages/kaspersky-hexa-ui-icons/src/iconsSVGs/16/Apps1.svg

<svg width="16" height="16" viewBox="0 0 16 16" fill="none" xmlns="http://www.w3.org/2000/svg">
<path fill-rule="evenodd" clip-rule="evenodd" d="M5.40689 2.48059C3.8975 2.48059 2.6739 3.70419 2.6739 5.21358V10.8556C2.6739 12.365 3.89751 13.5886 5.40689 13.5886H10.5935C12.1029 13.5886 13.3265 12.365 13.3265 10.8556V5.21358C13.3265 3.70419 12.1029 2.48059 10.5935 2.48059H5.40689ZM4.16462 5.21358C4.16462 4.52749 4.72081 3.97131 5.40689 3.97131H10.5935C11.2796 3.97131 11.8357 4.52749 11.8357 5.21358V10.8556C11.8357 11.5417 11.2796 12.0979 10.5935 12.0979H5.40689C4.72081 12.0979 4.16462 11.5417 4.16462 10.8556V5.21358Z" fill="black"/>
<path d="M16.0004 9.37246C16.0004 10.5043 15.4484 11.4983 14.6164 12.0636V4.00556C15.4484 4.57093 16.0004 5.56492 16.0004 6.69672V9.37246Z" fill="black"/>
<path d="M1.38439 4.00528C0.552199 4.57061 0 5.56474 0 6.69672V9.37246C0 10.5044 0.552199 11.4986 1.38439 12.0639V4.00528Z" fill="black"/>
</svg>

<svg xmlns="http://www.w3.org/2000/svg" width="16" height="16" fill="none" viewBox="0 0 16 16"><path fill="#000" fill-rule="evenodd" d="M5.4069 2.4806c-1.5094 0-2.733 1.2236-2.733 2.733v5.642c0 1.5094 1.2236 2.733 2.733 2.733h5.1866c1.5094 0 2.733-1.2236 2.733-2.733v-5.642c0-1.5094-1.2236-2.733-2.733-2.733zm-1.2423 2.733c0-.6861.5562-1.2423 1.2423-1.2423h5.1866c.6861 0 1.2422.5562 1.2422 1.2423v5.642c0 .6861-.5561 1.2423-1.2422 1.2423H5.4069c-.686 0-1.2423-.5562-1.2423-1.2423z" clip-rule="evenodd"/><path fill="#000" d="M16 9.373c0 1.132-.552 2.126-1.384 2.691V4.006C15.448 4.571 16 5.565 16 6.697zM1.384 4.005C.552 4.571 0 5.565 0 6.697v2.676c0 1.132.552 2.126 1.384 2.691z"/></svg>
